icons/medical_search_fill.svg

<svg width="48" height="48" viewBox="0 0 48 48" fill="none" xmlns="http://www.w3.org/2000/svg">
<path d="M25 19V15H29V19H33V23H29V27H25V23H21V19H25Z" fill="black"/>
<path fill-rule="evenodd" clip-rule="evenodd" d="M27 36C35.2843 36 42 29.2843 42 21C42 12.7157 35.2843 6 27 6C18.7157 6 12 12.7157 12 21C12 24.8259 13.4324 28.3173 15.7901 30.9671L14.6317 32.1256L12.9266 32.2449L6 39.1715L8.82843 41.9999L15.7122 35.1162L15.8702 33.7155L17.2157 32.37C19.8423 34.6323 23.2615 36 27 36ZM27 34C34.1797 34 40 28.1797 40 21C40 13.8203 34.1797 8 27 8C19.8203 8 14 13.8203 14 21C14 28.1797 19.8203 34 27 34Z" fill="black"/>
<path fill-rule="evenodd" clip-rule="evenodd" d="M16.5372 30.3024L17.1643 31.0072L17.8684 31.6123C20.1671 33.5922 23.1141 34.8373 26.3492 34.9852C19.0737 34.6523 13.2465 28.766 13.0076 21.4663C13.1184 24.8547 14.4323 27.9367 16.5372 30.3024ZM15.0744 33.097L13.3694 33.2164L7.41421 39.1715L8.82843 40.5857L14.7577 34.6565L14.9157 33.2558L15.0744 33.097ZM15.7122 35.1162L8.82843 41.9999L6 39.1715L12.9266 32.2449L14.6317 32.1256L15.7901 30.9671C13.4324 28.3173 12 24.8259 12 21C12 12.7157 18.7157 6 27 6C35.2843 6 42 12.7157 42 21C42 29.2843 35.2843 36 27 36C23.2615 36 19.8423 34.6323 17.2157 32.37L15.8702 33.7155L15.7122 35.1162ZM26 20H22V22H26V26H28V22H32V20H28V16H26V20ZM29 15V19H33V23H29V27H25V23H21V19H25V15H29ZM40 21C40 28.1797 34.1797 34 27 34C19.8203 34 14 28.1797 14 21C14 13.8203 19.8203 8 27 8C34.1797 8 40 13.8203 40 21Z" fill="black"/>
</svg>

<svg
  xmlns="http://www.w3.org/2000/svg"
  width="24"
  height="24"
  viewBox="0 0 24 24"
  fill="none"
  stroke="currentColor"
  stroke-width="2"
  stroke-linecap="round"
  stroke-linejoin="round"
>
  <path d="M25 19v-4h4v4h4v4h-4v4h-4v-4h-4v-4z" />
  <path
    fill-rule="evenodd"
    d="M27 36c8.284 0 15-6.716 15-15S35.284 6 27 6s-15 6.716-15 15c0 3.826 1.432 7.317 3.79 9.967l-1.158 1.159-1.705.119L6 39.172 8.828 42l6.884-6.884.158-1.4 1.346-1.346A14.94 14.94 0 0 0 27 36m0-2c7.18 0 13-5.82 13-13S34.18 8 27 8s-13 5.82-13 13 5.82 13 13 13"
    clip-rule="evenodd"
  />
  <path
    fill-rule="evenodd"
    d="m16.537 30.302.627.705.704.605a13.94 13.94 0 0 0 8.481 3.373c-7.275-.333-13.103-6.219-13.341-13.519a13.94 13.94 0 0 0 3.53 8.836m-1.463 2.795-1.705.12-5.955 5.955 1.414 1.414 5.93-5.93.158-1.4zm.638 2.02L8.828 42 6 39.172l6.927-6.927 1.705-.12 1.158-1.158A14.94 14.94 0 0 1 12 21c0-8.284 6.716-15 15-15s15 6.716 15 15-6.716 15-15 15a14.94 14.94 0 0 1-9.784-3.63l-1.346 1.346zM26 20h-4v2h4v4h2v-4h4v-2h-4v-4h-2zm3-5v4h4v4h-4v4h-4v-4h-4v-4h4v-4zm11 6c0 7.18-5.82 13-13 13s-13-5.82-13-13S19.82 8 27 8s13 5.82 13 13"
    clip-rule="evenodd"
  />
</svg>
